app/client/src/assets/icons/blueprintjs/20px/hat.svg

<?xml version="1.0" encoding="UTF-8"?>
<svg width="20px" height="20px" viewBox="0 0 20 20" version="1.1" xmlns="http://www.w3.org/2000/svg" xmlns:xlink="http://www.w3.org/1999/xlink">
    <!-- Generator: Sketch 64 (93537) - https://sketch.com -->
    <title>hat-large</title>
    <desc>Created with Sketch.</desc>
    <g id="hat-large" stroke="none" stroke-width="1" fill="none" fill-rule="evenodd">
        <path d="M18.5,13 C19.6177431,13 19.9655243,13.5343761 19.9975081,14.3662189 L20,14.5 L20,15 C20,16.9453001 14.3100756,18 10,18 C5.68992427,18 -9.24126198e-08,16.9453001 -9.24126198e-08,15 L-9.24126198e-08,14.5 C-9.24126198e-08,13.5921065 0.323428186,13 1.49999991,13 C2.39478214,13 4.99995454,14.2 9.99999991,14.2 L10.4111407,14.1972737 C15.1434486,14.1342593 17.6300728,13 18.5,13 Z M13.5,3 C15.2252788,3 16.4544598,5.728538 17.1875429,11.185614 C15.7329473,11.4490858 13.3830597,11.905253 10.7957851,11.9872044 L10.3624875,11.9973008 L9.99999991,12 C7.10389082,12 4.41476703,11.475794 2.81146088,11.186454 C3.54556378,5.728538 4.77474191,3 6.5,3 C8.6,3 8.32860566,5.5 10,5.5 C11.6713942,5.5 11.5,3 13.5,3 Z" id="Combined-Shape" fill="#10161A"></path>
    </g>
</svg>

<svg xmlns="http://www.w3.org/2000/svg" width="20" height="20"><path fill-rule="evenodd" d="M18.5 13c1.118 0 1.466.534 1.498 1.366L20 14.5v.5c0 1.945-5.69 3-10 3S0 16.945 0 15v-.5c0-.908.323-1.5 1.5-1.5.895 0 3.5 1.2 8.5 1.2l.411-.003C15.143 14.134 17.631 13 18.5 13Zm-5-10c1.725 0 2.954 2.729 3.688 8.186-1.455.263-3.805.72-6.392.801l-.434.01L10 12c-2.896 0-5.585-.524-7.189-.814C3.546 5.73 4.775 3 6.5 3 8.6 3 8.329 5.5 10 5.5S11.5 3 13.5 3Z"/></svg>
